img/icons/icon_review.svg

<svg width="100" height="100" viewBox="0 0 100 100" fill="none" xmlns="http://www.w3.org/2000/svg">
<path d="M87.4998 33.3334H61.2082L65.1665 14.2917L65.2915 12.9584C65.2915 11.25 64.5832 9.66669 63.4582 8.54169L59.0415 4.16669L31.6248 31.625C30.0832 33.125 29.1665 35.2084 29.1665 37.5V79.1667C29.1665 83.75 32.9165 87.5 37.4998 87.5H74.9998C78.4582 87.5 81.4165 85.4167 82.6665 82.4167L95.2498 53.0417C95.6248 52.0834 95.8332 51.0834 95.8332 50V41.6667C95.8332 37.0834 92.0832 33.3334 87.4998 33.3334ZM87.4998 50L74.9998 79.1667H37.4998V37.5L55.5832 19.4167L50.9582 41.6667H87.4998V50ZM4.1665 37.5H20.8332V87.5H4.1665V37.5Z" fill="#3077C6"/>
</svg>

<svg xmlns="http://www.w3.org/2000/svg" width="100" height="100" fill="none"><path fill="#3077C6" d="M87.5 33.333H61.208l3.959-19.041.124-1.334a6.272 6.272 0 0 0-1.833-4.416l-4.416-4.375-27.417 27.458a8.147 8.147 0 0 0-2.459 5.875v41.667c0 4.583 3.75 8.333 8.334 8.333H75a8.277 8.277 0 0 0 7.666-5.083L95.25 53.042A8.232 8.232 0 0 0 95.833 50v-8.333c0-4.584-3.75-8.334-8.333-8.334ZM87.5 50 75 79.167H37.5V37.5l18.083-18.083-4.625 22.25H87.5V50ZM4.166 37.5h16.667v50H4.167v-50Z"/></svg>
